X: 5275
T: Brookside Hall
R: jig
M: 6/8
K: Fmajor
|:B|AGA FAc|BAB def|cAF FAc|BAB G2 B|
AGA FAc|BAB d2 f|ege cde|f3 f2:|
|:g|agf fcA|BAB def|cAF FAc|BAB G2 g|
agf fcA|BAB d2 f|ege cde|f3 f2 g|
agf fcA|BAB def|cAF FAc|BAB G2 B|
AGA FAc|BAB d2 f|ege cde|f3 f2||

